packages/tokens/icons/insightPanel3/size32Px.svg

<svg viewBox="0 0 32 32" fill="none" xmlns="http://www.w3.org/2000/svg" width="1em" height="1em"><path d="M23.5 9.5V6.5C23.5 5.39543 22.6046 4.5 21.5 4.5L6.5 4.5C5.39543 4.5 4.5 5.39543 4.5 6.5L4.5 25.5C4.5 26.6046 5.39543 27.5 6.5 27.5H21.5C22.6046 27.5 23.5 26.6046 23.5 25.5V23.5" stroke="currentColor" stroke-linecap="round"/><circle cx="23" cy="16" r="3.5" stroke="currentColor"/><path d="M28.3262 21.3306L25.5 18.5" stroke="currentColor" stroke-linecap="round" stroke-linejoin="round"/><path d="M7.5 12.5L7.5 23.5H19.5" stroke="currentColor" stroke-linecap="round" stroke-linejoin="round"/><path d="M7.5 23.5L11.5 15L15 21L17 17" stroke="currentColor"/><path d="M12 14C12 14.2761 11.7761 14.5 11.5 14.5C11.2239 14.5 11 14.2761 11 14C11 13.7239 11.2239 13.5 11.5 13.5C11.7761 13.5 12 13.7239 12 14Z" stroke="currentColor"/><circle cx="15" cy="21" r="0.5" stroke="currentColor"/><path d="M17.5 17C17.5 17.2761 17.2761 17.5 17 17.5C16.7239 17.5 16.5 17.2761 16.5 17C16.5 16.7239 16.7239 16.5 17 16.5C17.2761 16.5 17.5 16.7239 17.5 17Z" stroke="currentColor"/><rect x="7.5" y="7.5" width="13" height="2" rx="1" stroke="currentColor"/></svg>

<svg xmlns="http://www.w3.org/2000/svg" fill="none" viewBox="0 0 32 32" width="1em" height="1em"><path stroke="currentColor" stroke-linecap="round" d="M23.5 9.5v-3a2 2 0 0 0-2-2h-15a2 2 0 0 0-2 2v19a2 2 0 0 0 2 2h15a2 2 0 0 0 2-2v-2"/><circle cx="23" cy="16" r="3.5" stroke="currentColor"/><path stroke="currentColor" stroke-linecap="round" stroke-linejoin="round" d="M28.326 21.33 25.5 18.5m-18-6v11h12"/><path stroke="currentColor" d="m7.5 23.5 4-8.5 3.5 6 2-4m-5-3a.5.5 0 1 1-1 0 .5.5 0 0 1 1 0Z"/><circle cx="15" cy="21" r=".5" stroke="currentColor"/><path stroke="currentColor" d="M17.5 17a.5.5 0 1 1-1 0 .5.5 0 0 1 1 0Z"/><rect width="13" height="2" x="7.5" y="7.5" stroke="currentColor" rx="1"/></svg>
